X: 1351
T: Colin Charlton's Reel
B: australian traditional tunes wiki
M:4/4
L:1/8
R: Reel
Q: 1/4=100
K:D
V:1 
|:"D"FAAA FDDD|"G"GBBB GEEE|"D"FAAA FDDD|"Bm"B,DDD B,DDD|
"D"FAAA FDDD|"G"GBBB GEEE|"D"FAdA BAFD|"A7"(3EFE D2"D"D2A2:|
|:"D"d3e fedA|"Bm"B2de fedA|B2de fedA|"G"Bddd eddB|
"D"A2Bcd2d2|ABde fedA|"G"B2(3B/c/B/A "D"FABA|"A7"dBAF "D"(3EFE D2:|
% abcbook-tune_id 6342d53aa099d598a54a57f6


% abcbook-boost 0
% abcbook-tablature 
% abcbook-transpose 
% abcbook-lastupdated 1665324360609
% abcbook-soundfonts 
% abcbook-repeats 1
% NFF Book 2006

